flaticon/constructions/nail-gun.svg

<svg xmlns="http://www.w3.org/2000/svg" width="32" height="32" viewBox="0 0 24 24">
    <path d="M22.386719 4.40625C22.386719 4.164062 22.226562 4.003906 21.984375 4.003906L17.988281 4.003906C17.75 4.003906 17.589844 4.164062 17.589844 4.40625 17.589844 4.644531 17.75 4.804688 17.988281 4.804688L21.984375 4.804688C22.226562 4.804688 22.386719 4.644531 22.386719 4.40625zM22.386719 6.003906C22.386719 5.765625 22.226562 5.605469 21.984375 5.605469L18.789062 5.605469C18.546875 5.605469 18.386719 5.765625 18.386719 6.003906 18.386719 6.242188 18.546875 6.402344 18.789062 6.402344L21.984375 6.402344C22.226562 6.402344 22.386719 6.242188 22.386719 6.003906zM21.984375 7.203125L19.585938 7.203125C19.347656 7.203125 19.1875 7.363281 19.1875 7.601562 19.1875 7.84375 19.347656 8.003906 19.585938 8.003906L21.984375 8.003906C22.226562 8.003906 22.386719 7.84375 22.386719 7.601562 22.386719 7.363281 22.226562 7.203125 21.984375 7.203125zM21.984375 7.203125"/>
    <path d="M 23.863281 20.113281 C 22.023438 18.46875 22.101562 13.792969 23.121094 9.957031 C 23.628906 9.816406 23.984375 9.363281 23.984375 8.800781 L 23.984375 3.207031 C 23.984375 2.527344 23.464844 2.007812 22.785156 2.007812 L 3.996094 2.007812 C 3.316406 2.007812 2.796875 2.527344 2.796875 3.207031 L 2.796875 4.003906 L 1.199219 4.003906 C 0.519531 4.003906 0 4.523438 0 5.203125 L 0 6.804688 C 0 7.484375 0.519531 8.003906 1.199219 8.003906 L 2.796875 8.003906 L 2.796875 8.800781 C 2.796875 9.363281 2.839844 9.921875 2.917969 10.441406 L 4.238281 20.59375 C 4.355469 21.394531 5.035156 21.992188 5.835938 21.992188 L 16.390625 21.992188 C 17.269531 21.992188 17.988281 21.273438 17.988281 20.394531 L 17.988281 10 L 18.789062 10 C 18.800781 11.597656 18.988281 17.445312 21.265625 19.796875 C 21.90625 20.433594 22.707031 20.792969 23.585938 20.792969 C 23.746094 20.792969 23.90625 20.675781 23.984375 20.554688 C 24.023438 20.394531 23.984375 20.234375 23.863281 20.113281 Z M 1.199219 7.203125 C 0.960938 7.203125 0.800781 7.042969 0.800781 6.804688 L 0.800781 5.203125 C 0.800781 5.003906 1 4.804688 1.199219 4.804688 L 2.796875 4.804688 L 2.796875 7.203125 Z M 17.589844 9.203125 C 17.347656 9.203125 17.1875 9.363281 17.1875 9.601562 L 17.1875 20.394531 C 17.1875 20.835938 16.828125 21.195312 16.390625 21.195312 L 5.875 21.195312 C 5.476562 21.195312 5.117188 20.914062 5.078125 20.515625 L 3.71875 10.359375 C 3.636719 9.839844 3.597656 9.320312 3.597656 8.800781 L 3.597656 3.207031 C 3.597656 3.003906 3.796875 2.804688 3.996094 2.804688 L 22.785156 2.804688 C 23.027344 2.804688 23.183594 2.964844 23.183594 3.207031 L 23.183594 8.800781 C 23.183594 9.042969 23.027344 9.203125 22.785156 9.203125 Z M 21.828125 19.234375 C 19.789062 17.117188 19.585938 11.519531 19.585938 10 L 22.265625 10 C 21.347656 13.480469 21.1875 17.476562 22.546875 19.753906 C 22.304688 19.636719 22.066406 19.476562 21.828125 19.234375 Z M 21.828125 19.234375"/>
    <path d="M14.789062 12L6.796875 12C6.355469 12 5.996094 12.359375 5.996094 12.800781L5.996094 12.839844 6.636719 17.917969C6.796875 18.636719 7.433594 19.195312 8.195312 19.195312L13.589844 19.195312C14.472656 19.195312 15.191406 18.476562 15.191406 17.597656L15.191406 12.398438C15.191406 12.160156 15.03125 12 14.789062 12zM14.390625 12.800781L14.390625 15.199219 13.871094 15.199219 12.953125 12.800781zM13.589844 18.394531L8.15625 18.394531C7.796875 18.394531 7.476562 18.15625 7.394531 17.796875L6.796875 12.800781 12.121094 12.800781 13.230469 15.757812C13.273438 15.878906 13.429688 15.996094 13.589844 15.996094L14.390625 15.996094 14.390625 17.597656C14.390625 18.035156 14.03125 18.394531 13.589844 18.394531zM7.59375 7.601562L13.191406 7.601562C14.070312 7.601562 14.789062 6.882812 14.789062 6.003906 14.789062 5.125 14.070312 4.40625 13.191406 4.40625L7.59375 4.40625C6.714844 4.40625 5.996094 5.125 5.996094 6.003906 5.996094 6.882812 6.714844 7.601562 7.59375 7.601562zM7.59375 5.203125L13.191406 5.203125C13.632812 5.203125 13.992188 5.5625 13.992188 6.003906 13.992188 6.445312 13.632812 6.804688 13.191406 6.804688L7.59375 6.804688C7.15625 6.804688 6.796875 6.445312 6.796875 6.003906 6.796875 5.5625 7.15625 5.203125 7.59375 5.203125zM7.59375 5.203125"/>
</svg>

<svg xmlns="http://www.w3.org/2000/svg" width="32" height="32" viewBox="0 0 24 24">
    <path d="M22.387 4.406c0-.242-.16-.402-.403-.402h-3.996c-.238 0-.398.16-.398.402 0 .239.16.399.398.399h3.996c.243 0 .403-.16.403-.399zm0 0M22.387 6.004c0-.238-.16-.399-.403-.399H18.79c-.242 0-.402.16-.402.399 0 .238.16.398.402.398h3.195c.243 0 .403-.16.403-.398zm0 0M21.984 7.203h-2.398c-.238 0-.398.16-.398.399 0 .242.16.402.398.402h2.398c.243 0 .403-.16.403-.402 0-.239-.16-.399-.403-.399zm0 0"/>
    <path d="M23.863 20.113c-1.84-1.644-1.761-6.32-.742-10.156.508-.14.863-.594.863-1.156V3.207c0-.68-.52-1.2-1.199-1.2H3.996c-.68 0-1.2.52-1.2 1.2v.797H1.2c-.68 0-1.199.52-1.199 1.2v1.6c0 .68.52 1.2 1.2 1.2h1.597V8.8c0 .562.043 1.12.121 1.64l1.32 10.153c.117.8.797 1.398 1.598 1.398H16.39c.879 0 1.597-.719 1.597-1.597V10h.801c.012 1.598.2 7.445 2.477 9.797.64.637 1.441.996 2.32.996.16 0 .32-.117.398-.238.04-.16 0-.32-.12-.442zM1.2 7.203c-.238 0-.398-.16-.398-.398V5.203c0-.2.199-.398.398-.398h1.598v2.398zm16.39 2c-.241 0-.401.16-.401.399v10.793c0 .44-.36.8-.797.8H5.875c-.398 0-.758-.28-.797-.68L3.718 10.36a9.976 9.976 0 0 1-.12-1.558V3.207c0-.203.199-.402.398-.402h18.79c.241 0 .398.16.398.402v5.594c0 .242-.157.402-.399.402zm4.24 10.031c-2.04-2.117-2.243-7.714-2.243-9.234h2.68c-.918 3.48-1.078 7.477.28 9.754a2.541 2.541 0 0 1-.718-.52zm0 0"/>
    <path d="M14.79 12H6.796c-.442 0-.8.36-.8.8v.04l.64 5.078c.16.719.797 1.277 1.558 1.277h5.395c.883 0 1.601-.718 1.601-1.597v-5.2c0-.238-.16-.398-.402-.398zm-.4.8v2.4h-.519l-.918-2.4zm-.8 5.595H8.156a.773.773 0 0 1-.761-.598L6.797 12.8h5.324l1.11 2.957c.042.12.199.238.359.238h.8v1.602c0 .437-.359.797-.8.797zm0 0M7.594 7.602h5.597c.88 0 1.598-.72 1.598-1.598 0-.879-.719-1.598-1.598-1.598H7.594c-.88 0-1.598.719-1.598 1.598 0 .879.719 1.598 1.598 1.598zm0-2.399h5.597a.802.802 0 0 1 0 1.602H7.594a.801.801 0 0 1 0-1.602zm0 0"/>
</svg>
